src/images/backend-logo-r.svg

<svg xmlns="http://www.w3.org/2000/svg" xmlns:xlink="http://www.w3.org/1999/xlink" preserveAspectRatio="xMidYMid" width="724" height="561" viewBox="0 0 724 561">
  <defs>
    <linearGradient id="gradientFill-1" x1="0" x2="1" y1="0" y2="1" gradientUnits="objectBoundingBox" spreadMethod="pad">
      <stop offset="0" stop-color="rgb(203,206,208)" stop-opacity="1"/>
      <stop offset="1" stop-color="rgb(132,131,139)" stop-opacity="1"/>
    </linearGradient>
    <linearGradient id="gradientFill-2" x1="0" x2="1" y1="0" y2="1" gradientUnits="objectBoundingBox" spreadMethod="pad">
      <stop offset="0" stop-color="rgb(39,109,195)" stop-opacity="1"/>
      <stop offset="1" stop-color="rgb(22,92,170)" stop-opacity="1"/>
    </linearGradient>
  </defs>
  <path d="M361.453,485.937 C162.329,485.937 0.906,377.828 0.906,244.469 C0.906,111.109 162.329,3.000 361.453,3.000 C560.578,3.000 722.000,111.109 722.000,244.469 C722.000,377.828 560.578,485.937 361.453,485.937 ZM416.641,97.406 C265.289,97.406 142.594,171.314 142.594,262.484 C142.594,353.654 265.289,427.562 416.641,427.562 C567.992,427.562 679.687,377.033 679.687,262.484 C679.687,147.971 567.992,97.406 416.641,97.406 Z" fill="url(#gradientFill-1)" fill-rule="evenodd"/>
  <path d="M550.000,377.000 C550.000,377.000 571.822,383.585 584.500,390.000 C588.899,392.226 596.510,396.668 602.000,402.500 C607.378,408.212 610.000,414.000 610.000,414.000 L696.000,559.000 L557.000,559.062 L492.000,437.000 C492.000,437.000 478.690,414.131 470.500,407.500 C463.668,401.969 460.755,400.000 454.000,400.000 C449.298,400.000 420.974,400.000 420.974,400.000 L421.000,558.974 L298.000,559.026 L298.000,152.938 L545.000,152.938 C545.000,152.938 657.500,154.967 657.500,262.000 C657.500,369.033 550.000,377.000 550.000,377.000 ZM496.500,241.024 L422.037,240.976 L422.000,310.026 L496.500,310.002 C496.500,310.002 531.000,309.895 531.000,274.877 C531.000,239.155 496.500,241.024 496.500,241.024 Z" fill="url(#gradientFill-2)" fill-rule="evenodd"/>
</svg>

<svg xmlns="http://www.w3.org/2000/svg" preserveAspectRatio="xMidYMid" width="724" height="561"><defs><linearGradient id="a" x2="1" y2="1" gradientUnits="objectBoundingBox"><stop offset="0" stop-color="#CBCED0"/><stop offset="1" stop-color="#84838B"/></linearGradient><linearGradient id="b" x2="1" y2="1" gradientUnits="objectBoundingBox"><stop offset="0" stop-color="#276DC3"/><stop offset="1" stop-color="#165CAA"/></linearGradient></defs><path d="M361.5 486C162.3 486 .9 377.7.9 244.4 1 111 162.3 3 361.5 3 560.5 3 722 111.1 722 244.5c0 133.3-161.4 241.4-360.5 241.4zm55.1-388.6c-151.3 0-274 74-274 165 0 91.3 122.7 165.2 274 165.2 151.4 0 263-50.6 263-165.1s-111.6-165-263-165z" fill="url(#a)" fill-rule="evenodd"/><path d="M550 377s21.8 6.6 34.5 13c4.4 2.2 12 6.7 17.5 12.5 5.4 5.7 8 11.5 8 11.5l86 145H557l-65-122s-13.3-22.9-21.5-29.5c-6.8-5.5-9.7-7.5-16.5-7.5h-33v159H298V153h247s112.5 2 112.5 109S550 377 550 377zm-53.5-136H422v69h74.5s34.5-.1 34.5-35.1c0-35.7-34.5-33.9-34.5-33.9z" fill="url(#b)" fill-rule="evenodd"/></svg>
